X:1
T:6 Gesänge, Op.6
T:Tränen
T:6 Gesänge, Op.6 
T:6. Tränen Tears
T:Robert Franz
T:Adelbert von Chamisso (trans. Diana Udevak Ashton) 
T:OpenScore (CC0)
T:OpenScore (CC0)
T:OpenScore (CC0)
C:Robert Franz
Z:Adelbert von Chamisso
Z:OpenScore (CC0)
%%score 1 { ( 2 5 ) | ( 3 4 6 ) }
L:1/8
Q:1/4=116
M:2/4
K:Gb
V:1 treble nm="Singstimme\nVoice"
V:2 treble nm="Pianoforte"
V:5 treble 
V:3 bass 
V:4 bass 
V:6 bass 
V:1
"^Tief bewegt""^Agitato e molto appassionato"!mf! G3/2 G/ | E F G3/2 G/ | E E"^cresc." B3/2 B/ | %3
w: Nicht der|Tau und nicht der|Re- gen drin- gen,|
w: 'Tis not|dew, nor rain that's|sink- ing, sink- ing|
 G A B3/2 B/ | G2!f! d3/2 d/ | B =c d3/2 d/ |!<(! B =c d c!<)! | f e d =c | %8
w: Mut- ter, in dein|Grab, Trä- nen|sind es, Trä- nen|dei- nes ar- mes|Kin- des rin- nen|
w: Mo- ther, in thy|grave, tears of|tor- ture, wrung from|thine un- hap- py|daugh- ter, bur- ning|
!mf! (B/"^poco riten."[Q:1/4=106]=c/) (d/e/)[Q:1/4=96]!>(! f (e/d/)!>)! | %9
w: heiss _ zu _ dir hin- *|
w: tears _ the _ cold earth _|
"^a tempo"[Q:1/4=116] (=c f2) z | z4 | z4 | z4 | z2!mf! (AB/) c/ | (BA/) G/ (AB/) c/ | %15
w: ab. _||||Und _ ich|gra- * be, gra- * be,|
w: lave. _||||And _ I'm|gro- * ping, gro- * ping,|
 (BA/) G/ F G | A B c (G/A/) | B2!f! f3/2 B/ | (B/e/) e d c | (Bd/) c/ B c | %20
w: gra- * be, von den|Nä- geln springt das _|Blut, ach! mit|Schmer- * zen, mit zer-|riss'- * nem blut'- gem|
w: gro- * ping, from my|fin- gers starts the _|blood, Ah! I|lan- * guish, and my|torn _ heart  bleeds with|
"^rallent."[Q:1/4=105] B A[Q:1/4=100] (GF/) E/ | %21
w: Her- zen bring _ ich|
w: an- guish on, _ I|
[Q:1/4=95] B[Q:1/4=93] A[Q:1/4=90] G[Q:1/4=85] (F/E/) |!<(! A4-!<)! |!>(! A2!>)! z2 | %24
w: dir hin- ab mein _|Gut.|_|
w: bring thee all my _|good|_|
"^a tempo"[Q:1/4=116] z2!mf! G3/2 G/ | E F G3/2 G/ | E E B3/2 B/ | G A B3/2 B/ | G2!f! d3/2 d/ | %29
w: Mei- nen|Ring, sollst mir ihn|wah- ren, gu- te|Mut- ter, lie- be-|voll; ach! sie|
w: Thou, my|ring shalt have in|keep- ing, thou shalt|guard it, Ah! they|say, dear- est|
 B =c d3/2 d/ |!<(! B =c d c | f!<)! e d =c | %32
w: sa- gen, dass ich|ei- nen an- dern|tra- gen, weg den|
w: Mo- ther, that I|soon shall wear an-|o- ther, then must|
"^riten. un poco"[Q:1/4=106] (B/=c/) (c/[Q:1/4=96]d/) (e/[Q:1/4=90]d/) (c/B/) | %33
w: mei- * nen _ wer- * fen _|
w: throw _ my _ ring _ a- *|
"^a tempo"[Q:1/4=116]!>(! (=c f2)!>)! z | z4 | z4 | z4 | z2!mf! (AB/) c/ | (BA/) G/ (AB/) c/ | %39
w: soll! _||||Ring, _ mein|Ring, _ du teu- * res|
w: way! _||||Ring, _ my|ring, _ thou pre- * cious|
 B E F G | A B c (G/A/) | B2!f! f3/2 B/ | (B/e/) e d c | (Bd/) c/ (Bd/) c/ | B A!<(! G (F/E/)!<)! | %45
w: Klei- nod! muss es|denn ge- schie- den _|sein? Ach! ich|wer- * de bald dich|su- * chen in _ der|Er- de und du _|
w: jew- el! must I|real- ly part from _|thee? Soon I'll|fol- * low, seek thee|in _ the earth's _ deep|hol- low, mine for _|
!ff! a2 (gf) | e2!>(! =d2 | e2-!>)!!f! e z | z4 |[Q:1/4=110] z4[Q:1/4=105] | %50
w: bleibst dann _|wie- der|mein. _|||
w: e- ver _|then thou'lt|be. _|||
[Q:1/4=100] z4[Q:1/4=95] |[Q:1/4=90] z4[Q:1/4=80] | z4 | z2 |] %54
w: ||||
w: ||||
V:2
!mf! ([G,EG]2 | EF) ([G,EG]2 | EF)"_cresc." ([B,GB]2 | GA) ([B,GB]2 | [EG]2)!f! ([DBd]2 | %5
 B=c) ([DBd]2 | B=c) ([Bd][=Ac] |!f! fed=c) |"_poco riten."!mf! B2!>(! F=G!>)! |"^a tempo" F4 | %10
!p! B4 | F4 |!>(! (([FB]4!>)! | [E=c]2))!mf! =d2 | e2 =d2 | e2!<(! (B2- | %16
 B2!<)!!>(! [=DF][EG]!>)! | [=DF]2)!f! (BA | GA/B/ [Dd]2 | %19
 [B,B]2"_dim.       e         rallent." G[FA] | GF E2) | (BA G2 | A4-) | [EA]2!pp! [=DB]2- | %24
"^a tempo" [DB]2!mf! ([EG]2 | EF) ([EG]2 | E"_cresc."F) ([GB]2 | GA) ([GB]2 | G2)!f! ([Bd]2 | %29
 B=c) ([Bd]2 | B=c) ([Bd][=Ac] |!f! fed=c) | d2 F=G |"^a tempo" F4 |!p! B4 | F4 |!>(! (([FB]4!>)! | %37
 [E=c]2))!mf! =d2 | e2 =d2 | e2!<(! (B2- | B2!<)!!>(! [=DF][EG] | [=DF]2)!>)!!f! (BA | %42
 GA/B/ [Dd]2 | [B,B]2 G[FA] | GF E2) |!ff! ([A,EA]2 [B,EG][CF] | [G,B,E]2 [A,=DF]2) |!f! [Ee]4 | %48
 [B,B]4 |"_dimin.  al  Fine" (=G4 | [CEAc]4 | ([A,C=D]4) |!p! E4- | E2) |] %54
V:3
!<(! E,2- | E,2!<)!!<(! E,2- | E,2!<)!!<(! G,2- | G,2!<)! G,2- | G,2!<(! !>!B,2- | %5
 B,2!<)!!<(! !>!B,2- | B,2!<)! [B,D][=A,=C] | FED=C | B,2 B,2 | =A,B,/=C/ B,A, | !>![G,B,]4 | %11
 !>!=A,B,/=C/ B,A, | [G,B,]4- | [G,B,]2 !>!_A,B,/_C/ | !>!G,F,/E,/ !>!A,B,/C/ | !>!G,F,/E,/ =D,E, | %16
 F,E, [F,A,][E,G,] | [=D,F,]2 B,2- | B,2 [F,C]2 | [=D,A,]2 [G,B,][A,C] | !>!G,F, E,2 | (A,,2 B,,2 | %22
 C,4-) | C,2 B,,2- | B,,2!<(! E,2- | E,2!<)!!<(! E,2-!<)! | E,2!<(! G,2- | G,2!<)!!<(! G,2-!<)! | %28
 G,2!<(! !>!B,2- | B,2!<)!!<(! !>!B,2-!<)! | B,2 [B,D][=A,=C] | FED=C |"^riten. un poco" B,2 B,2 | %33
 !>!=A,B,/=C/ B,A, | [G,B,]4 | =A,B,/=C/ B,A, | [G,B,]4- | [G,B,]2 _A,B,/_C/ | %38
 !>!G,F,/E,/ !>!A,B,/C/ | G,F,/E,/ =D,E, | F,E, [F,A,][E,G,] | [=D,F,]2 B,2- | B,2 [F,C]2 | %43
 [=D,A,]2 [G,B,][A,C] | G,F, E,2 | (F,,2 G,,A,, | B,,2 B,,,2) | !>!B,C/B,/ A,G, | =D,E,/F,/ E,D, | %49
 [E,,-E,]4 | (A,,B,,/C,/ B,,A,,-) | (A,,B,,/C,/ B,,A,,) | =G,4- | G,2 |] %54
V:4
 (E,,F,,/G,,/ | A,,2) (E,,F,,/G,,/ | A,,2) (G,,A,,/B,,/ | C,2) (G,,A,,/B,,/ | C,2) (B,,=C,/D,/ | %5
 E,2) (B,,=C,/D,/ | E,2) F,2 | ([G,B,]2 F,E,) | (D,G, F,2) | F,4 | x4 | F,4 | x4 | x2 F,2 | %14
 B,,2 F,2 | B,,2 B,,2- | B,,4 | B,,2 =D,2 | E,F,/G,/ x2 | x2 E,2 | [B,,=D,]2 C,2 | x4 | x4 | x4 | %24
 x2 (E,,F,,/G,,/ | A,,2) (E,,F,,/G,,/ | A,,2) (G,,A,,/B,,/ | C,2) G,,A,,/B,,/ | C,2 (B,,=C,/D,/ | %29
 E,2) (B,,=C,/D,/ | E,2) F,2 | ([G,B,]2 F,E,) | (D,G, F,2 | F,4) | x4 | F,4 | x4 | x2 F,2 | %38
 B,,2 F,2 | B,,2 B,,2- | B,,4- | B,,2 =D,2 | E,F,/G,/ x2 | x2 E,2 | [B,,=D,]2 C,2 | x4 | x4 | %47
 [C,E,]4 | B,,4 | x4 | E,,4 | E,,4 | [E,,B,,]4- | [E,,B,,]2 |] %54
V:5
 x2 | C2 x2 | C2 x2 | E2 x2 | x4 | G2 x2 | G2 F2 | [GB]2 [F=A]2 | FE D2 | =CD/E/ DC | FG/F/ ED | %11
 =CD/E/ DC | x4 | x2 _AB/_c/ | BA/G/ AB/c/ | BA/G/ FG | AG x2 | x2 F2 | E2 BA | GF E2 | =D2 x2 | %21
 [CE]2 [B,E]2 | [A,E]4- | A,4- | A,2 G,A,/B,/ | C2 G,A,/B,/ | C2 B,C/D/ | E2 B,C/D/ | E2 DE/F/ | %29
 G2 DE/F/ | G2 F2 | [GB]2 [F=A]2 | FE D2 | =CD/E/ DC | !>!FG/F/ ED | =CD/E/ DC | x4 | x2 _AB/_c/ | %38
 BA/G/ AB/c/ | BA/G/ FG | AG x2 | x2 F2 | E2 BA | GF E2 | =D2 E2 | x4 | x4 | Bc/B/ AG | FG/A/ GF | %49
 _DE/_F/ ED | x4 | x4 | x4 | x2 |] %54
V:6
 x2 | x4 | x4 | x4 | x4 | x4 | x4 | x2 =A,2 | x4 | x4 | x4 | x4 | x4 | x4 | x4 | x4 | x4 | x4 | %18
 x4 | x4 | x4 | x4 | x4 | x4 | x4 | x4 | x4 | x4 | x4 | x4 | x4 | x2 =A,2 | x4 | x4 | x4 | x4 | %36
 x4 | x4 | x4 | x4 | x4 | x4 | x4 | x4 | x4 | x4 | x4 | x4 | x4 | x4 | x4 | F,4 | x4 | x2 |] %54

